!!!!SEGMENT: pl-kk--kk-i-8--028_anonim--ibant-apostoli-gaudentes.krn
!!!cenid: 16xx:1169
!!!COM: Anonim
!!!COM-rismID: pe30004985
!!!CDT:
!!!CNT:
!!!OTL: Ibant apostoli gaudentes
!!!PDT:
!!!AGN: Sacred
!!!SMS-siglum: PL-Kk
!!!SMS-shelfmark: Kk.I.8
!!!SMS-shelfwork: 028 W
!!!SMS-variant:
!!!SMS-altvar:
!!!NIFC-rismSourceID: 1001149130
!!!NIFC-islandoraID: pl-kk:2296
!!!URL-pdf-islandora: https://repozytorium.nifc.pl/islandora/object/pl-kk%3A2296/datastream/PDF/view
!!!URL-scan: https://polish.musicsources.pl/pl/lokalizacje/galeria/rekopisy/6141 @EN{Scan on Polish Music Sources Website} @PL{Skany w portalu Dziedzictwo Muzyki Polskiej w otwartym dostępie}
!!!ONB-nifc: UWAGA: A (skan 0017), T1 (0041), T2 (0064), B (0087). Następny utwór: Aurora caelum purpurat
!!!AIN: 1 alto 1 bass 2 tenor
!!!key:
**kern	**text	**kern	**text	**kern	**text	**kern	**text
*part4	*part4	*part3	*part3	*part2	*part2	*part1	*part1
*staff4	*staff4	*staff3	*staff3	*staff2	*staff2	*staff1	*staff1
*Ibass	*	*Itenor	*	*Itenor	*	*Ialto	*
*I"Bassus	*	*I"Tenor 2dus	*	*I"Tenore 1mo	*	*I"alto.	*
*I'B.	*	*I'T II	*	*I'T I	*	*I'A	*
*clefC4	*	*clefGv2	*	*clefC3	*	*clefC2	*
*k[b-]	*	*k[b-]	*	*k[b-]	*	*k[b-]	*
*g:	*	*g:	*	*g:	*	*g:	*
*M2/1	*	*M2/1	*	*M2/1	*	*M2/1	*
*met(C|)	*	*met(C|)	*	*met(C|)	*	*met(C|)	*
=1-	=1-	=1-	=1-	=1-	=1-	=1-	=1-
!	!	!	!	!	!	!LO:TX:t=P:problem=kreska pseudotaktowa	!
00r	.	0r	.	00r	.	1g\	I-
.	.	.	.	.	.	2g\	-bant
!	!	!	!	!	!	!LO:TX:t=P:problem=kreska pseudotaktowa	!
.	.	.	.	.	.	2g\	a-
=2-	=2-	=2-	=2-	=2-	=2-	=2-	=2-
.	.	1r	.	.	.	2f#X\	-pos-
!	!	!	!	!	!	!LO:TX:t=P:problem=kreska pseudotaktowa	!
.	.	.	.	.	.	2g\	-to-
.	.	2r	.	.	.	2d/	-li
!	!	!LO:TX:t=P:problem=kreska pseudotaktowa	!	!	!	!LO:TX:t=P:problem=kreska pseudotaktowa	!
.	.	2d\	I-	.	.	2b-\	gau-
=3-	=3-	=3-	=3-	=3-	=3-	=3-	=3-
!	!	!	!	!LO:TX:t=P:problem=kreska pseudotaktowa	!	!	!
00r	.	2d\	-bant	0r	.	4g\	-den-
.	.	.	.	.	.	4a\	.
.	.	2d\	a-	.	.	4b-\	.
!	!	!	!	!	!	!LO:TX:t=P:problem=kreska pseudotaktowa	!
.	.	.	.	.	.	4g\	.
.	.	2c#X\	-pos-	.	.	4a\	.
.	.	.	.	.	.	4g\	.
.	.	2d\	-to-	.	.	4f\	.
!	!	!	!	!	!	!LO:TX:t=P:problem=kreska pseudotaktowa	!
.	.	.	.	.	.	4e\	.
=4-	=4-	=4-	=4-	=4-	=4-	=4-	=4-
.	.	2A/	-li	1d\	I-	4f\	.
.	.	.	.	.	.	4g\	.
!	!	!LO:TX:t=P:problem=kreska pseudotaktowa	!	!	!	!LO:TX:t=P:problem=kreska pseudotaktowa	!
.	.	2f\	gau-	.	.	2a\	.
.	.	4d\	-den-	2d\	-bant	2f\	-tes
.	.	4e\	.	.	.	.	.
!	!	!	!	!LO:TX:t=P:problem=kreska pseudotaktowa	!	!	!
.	.	4f\	.	2d\	a-	2.a\	gau-
.	.	4d\	.	.	.	.	.
=5-	=5-	=5-	=5-	=5-	=5-	=5-	=5-
!LO:TX:t=P:problem=kreska pseudotaktowa	!	!	!	!	!	!	!
0r	.	2en\	.	2c#X/	-pos-	.	.
.	.	.	.	.	.	4g\	.
!	!	!	!	!LO:TX:t=P:problem=kreska pseudotaktowa	!	!LO:TX:t=P:problem=kreska pseudotaktowa	!
.	.	1d\	.	2d\	-to-	2f\	.
.	.	.	.	1A/	-li	1e\	-den-
!	!	!LO:TX:a:t=P:problem=# above	!	!	!	!	!
.	.	2c#X\	.	.	.	.	.
=6-	=6-	=6-	=6-	=6-	=6-	=6-	=6-
!LO:TX:t=P:problem=kreska pseudotaktowa	!	!	!	!	!	!	!
1G/	I-	0d\	-tes	2r	.	2d/	-tes
!	!	!	!	!LO:TX:t=P:problem=kreska pseudotaktowa	!	!LO:TX:t=P:problem=kreska pseudotaktowa	!
.	.	.	.	2d\	gau-	2b-\	I-
2G/	-bant	.	.	4B-/	-den-	2b-\	-bant
.	.	.	.	4c/	.	.	.
!LO:TX:t=P:problem=kreska pseudotaktowa	!	!	!	!	!	!LO:TX:t=P:problem=kreska pseudotaktowa	!
2G/	a-	.	.	4d\	.	2b-\	a-
!	!	!	!	!LO:TX:t=P:problem=kreska pseudotaktowa	!	!	!
.	.	.	.	4B-/	.	.	.
=7-	=7-	=7-	=7-	=7-	=7-	=7-	=7-
2F#X/	-pos-	2r	.	2c/	.	2a\	-po-
!	!	!LO:TX:t=P:problem=kreska pseudotaktowa	!	!	!	!LO:TX:t=P:problem=kreska pseudotaktowa	!
*	*	*	*ij	*	*	*	*
2G/	-to-	2d\	I-	4B-/	.	2b-\	-sto-
!	!	!	!	!LO:TX:t=P:problem=kreska pseudotaktowa	!	!	!
.	.	.	.	4c/	.	.	.
!LO:TX:t=P:problem=kreska pseudotaktowa	!	!	!	!	!	!LO:TX:t=P:problem=kreska pseudotaktowa	!
1D/	-li	2d\	-bant	4d\	.	1a\	-li
.	.	.	.	4e\	.	.	.
.	.	2d\	a-	4f\	.	.	.
.	.	.	.	4d\	.	.	.
!	!	!	!	!	!	!LO:LB:g=original	!
=8-	=8-	=8-	=8-	=8-	=8-	=8-	=8-
!LO:TX:t=P:problem=kreska pseudotaktowa	!	!LO:TX:a:t=P:problem=# above	!	!	!	!	!
0r	.	2c#X\	-pos-	2e\	.	2r	.
!	!	!	!	!LO:TX:t=P:problem=kreska pseudotaktowa	!	!LO:TX:t=P:problem=kreska pseudotaktowa	!
.	.	2d\	-to-	2d\	-tes	2a\	gau-
.	.	2A/	-li	2r	.	4f\	-den-
.	.	.	.	.	.	4g\	.
.	.	2f\	gau-	2f\	I-	4a\	.
!	!	!	!	!	!	!LO:TX:t=P:problem=kreska pseudotaktowa	!
.	.	.	.	.	.	4f\	.
=9-	=9-	=9-	=9-	=9-	=9-	=9-	=9-
*	*ij	*	*	*	*	*	*
1d\	I-	4d\	-den-	2f\	-bant	2b-\	.
.	.	4e\	.	.	.	.	.
!	!	!	!	!LO:TX:t=P:problem=kreska pseudotaktowa	!	!LO:TX:t=P:problem=kreska pseudotaktowa	!
.	.	4f\	.	2f\	a-	2a\	-tes
.	.	4d\	.	.	.	.	.
!	!	!LO:LB:g=original	!	!	!	!	!
2d\	-bant	2e\	.	2e\	-pos-	2r	.
!LO:TX:t=P:problem=kreska pseudotaktowa	!	!	!	!	!	!LO:TX:t=P:problem=kreska pseudotaktowa	!
2d\	a-	2.d\	.	2f\	-to-	2a\	I-
=10-	=10-	=10-	=10-	=10-	=10-	=10-	=10-
!	!	!	!	!LO:TX:t=P:problem=kreska pseudotaktowa	!	!	!
2c#X\	-pos-	.	.	1e\	-li	2a\	-bant
!	!	!LO:TX:a:t=P:problem=# above	!	!	!	!	!
.	.	8c#X\L	.	.	.	.	.
.	.	8B-\J	.	.	.	.	.
!LO:TX:t=P:problem=kreska pseudotaktowa	!	!LO:TX:t=P:problem=kreska pseudotaktowa	!	!	!	!LO:TX:t=P:problem=kreska pseudotaktowa	!
2d\	-to-	2c#\	.	.	.	2a\	a-
!LO:TX:a:t=g	!	!	!	!	!	!	!
2G\	-li	4d\	.	2r	.	2f\	-po-
*	*Xij	*	*	*	*	*	*
.	.	4c#\	.	.	.	.	.
!LO:TX:t=P:problem=kreska pseudotaktowa	!	!	!	!	!	!LO:TX:t=P:problem=kreska pseudotaktowa	!
*	*	*	*	*	*ij	*	*
2B-\	gau-	4B-/	.	2d\	I-	2g\	-sto-
.	.	4A/	.	.	.	.	.
=11-	=11-	=11-	=11-	=11-	=11-	=11-	=11-
!	!	!LO:TX:a:t=P:problem=♭ above	!	!	!	!	!
2.G/	-den-	1B-X\	.	2d\	-bant	2d/	-li
!	!	!	!	!LO:TX:t=P:problem=kreska pseudotaktowa	!	!LO:TX:t=P:problem=kreska pseudotaktowa	!
.	.	.	.	2d\	a-	2g\	gau-
!LO:TX:t=P:problem=kreska pseudotaktowa	!	!	!	!	!	!	!
4A/	.	.	.	.	.	.	.
!	!	!	!	!LO:LB:g=original	!	!	!
!	!	!LO:TX:t=P:problem=kreska pseudotaktowa	!	!	!	!	!
4B-\	.	1A/	-tes	2c#X/	-pos-	2e/	.
*	*	*	*Xij	*	*	*	*
4G/	.	.	.	.	.	.	.
!	!	!	!	!LO:TX:t=P:problem=kreska pseudotaktowa	!	!	!
4A/	.	.	.	2d\	-to-	1f\	-den-
!LO:TX:t=P:problem=kreska pseudotaktowa	!	!	!	!	!	!	!
4G/	.	.	.	.	.	.	.
=12-	=12-	=12-	=12-	=12-	=12-	=12-	=12-
4F/	.	2r	.	2A/	-li	.	.
*	*	*	*	*	*Xij	*	*
4E/	.	.	.	.	.	.	.
!	!	!	!	!LO:TX:t=P:problem=kreska pseudotaktowa	!	!LO:TX:t=P:problem=kreska pseudotaktowa	!
4D/	.	2d\	gau-	2f\	gau-	2g\	.
!LO:TX:t=P:problem=kreska pseudotaktowa	!	!	!	!	!	!	!
4C/	.	.	.	.	.	.	.
!LO:LB:g=original	!	!	!	!	!	!	!
!LO:TX:t=P:problem=kreska pseudotaktowa	!	!	!	!	!	!	!
1D/	.	4B-\	-den-	4d\	-den-	4f\	.
.	.	4c\	.	4e\	.	4g\	.
.	.	4d\	.	4f\	.	4a\	.
!	!	!	!	!	!	!LO:TX:t=P:problem=kreska pseudotaktowa	!
.	.	4B-\	.	4d\	.	4f\	.
=13-	=13-	=13-	=13-	=13-	=13-	=13-	=13-
2C/	-tes	4c\	.	4e-X\	.	2g\	.
.	.	4B-/	.	4d\	.	.	.
!LO:TX:t=P:problem=kreska pseudotaktowa	!	!	!	!	!	!	!
2F/	gau-	4A/	.	4c/	.	2f\	.
!	!	!	!	!LO:TX:t=P:problem=kreska pseudotaktowa	!	!	!
.	.	4G/	.	4B-/	.	.	.
2C/	-den-	4A/	.	4c/	.	2e-X/	.
.	.	4G/	.	4B-/	.	.	.
!LO:TX:t=P:problem=kreska pseudotaktowa	!	!	!	!	!	!LO:TX:t=P:problem=kreska pseudotaktowa	!
2E-X/	.	1G/	.	4A/	.	2c/	.
.	.	.	.	4G/	.	.	.
=14-	=14-	=14-	=14-	=14-	=14-	=14-	=14-
!LO:TX:t=P:problem=kreska pseudotaktowa	!	!	!	!	!	!	!
1D/	-tes	.	.	1A/	.	1d/	.
!	!	!LO:TX:b:t=P:problem=# below	!	!	!	!	!
.	.	2F#X/	.	.	.	.	.
!	!	!	!	!LO:TX:t=P:problem=kreska pseudotaktowa	!	!LO:TX:t=P:problem=kreska pseudotaktowa	!
2r	.	1G/	-tes	1G/	-tes	0d/	-tes
1G/	a	.	.	.	.	.	.
=15-	=15-	=15-	=15-	=15-	=15-	=15-	=15-
.	.	2r	.	00r	.	.	.
2G/	Con-	1G/	a	.	.	.	.
!LO:TX:t=P:problem=kreska pseudotaktowa	!	!	!	!	!	!	!
1c\	-ſpe-	.	.	.	.	1r	.
!	!	!LO:TX:t=P:problem=kreska pseudotaktowa	!	!	!	!	!
.	.	2G/	Con-	.	.	.	.
=16-	=16-	=16-	=16-	=16-	=16-	=16-	=16-
2B-\	.	1B-\	-ſpe-	.	.	1.d/	a
!LO:TX:t=P:problem=kreska pseudotaktowa	!	!	!	!	!	!	!
2G/	-ctu	.	.	.	.	.	.
2.B-\	con-	2B-/	-ctu	.	.	.	.
!	!	!LO:TX:t=P:problem=kreska pseudotaktowa	!	!	!	!LO:TX:t=P:problem=kreska pseudotaktowa	!
.	.	2G/	.	.	.	2d/	Con-
!LO:TX:t=P:problem=kreska pseudotaktowa	!	!	!	!	!	!	!
4c\	.	.	.	.	.	.	.
!	!	!	!	!	!	!LO:LB:g=original	!
=17-	=17-	=17-	=17-	=17-	=17-	=17-	=17-
2d\	-ci-	2B-/	Con-	1r	.	2f\	-spe-
!LO:TX:t=P:problem=kreska pseudotaktowa	!	!	!	!	!	!LO:TX:t=P:problem=kreska pseudotaktowa	!
2e\	.	2c\	-ci-	.	.	2g\	-ctu
!	!	!LO:TX:t=P:problem=kreska pseudotaktowa	!	!	!	!	!
!	!	!LO:TX:a:t=3.	!	!	!	!	!
1d\,	-lij	0.d\	-lij	2r	.	2a\	con-
.	.	.	.	1G/	a	2.b-\	.
=18-	=18-	=18-	=18-	=18-	=18-	=18-	=18-
!LO:TX:t=P:problem=kreska pseudotaktowa	!	!	!	!	!	!	!
*	*ij	*	*	*	*	*	*
1B-\	a	.	.	.	.	.	.
.	.	.	.	.	.	4a\	.
!	!	!	!	!LO:TX:t=P:problem=kreska pseudotaktowa	!	!	!
.	.	.	.	2G/	Con-	1g\	ci-
1A\	Con-	.	.	1c\	-spe-	.	.
!	!	!	!	!	!	!LO:TX:t=P:problem=kreska pseudotaktowa	!
.	.	.	.	.	.	2f\	-li-
!	!	!LO:LB:g=original	!	!	!	!	!
=19-	=19-	=19-	=19-	=19-	=19-	=19-	=19-
!LO:TX:t=P:problem=kreska pseudotaktowa	!	!	!	!	!	!	!
1G/	-ſpe-	2r	.	2B-/	.	2g,\	-j
!	!	!	!	!LO:TX:t=P:problem=kreska pseudotaktowa	!	!	!
*	*	*	*ij	*	*	*	*
.	.	1G/	a	2G/	-ctu	1d/	a
2G/	-ctu	.	.	2.B-/	Con-	.	.
!LO:TX:t=P:problem=kreska pseudotaktowa	!	!LO:TX:t=P:problem=kreska pseudotaktowa	!	!	!	!LO:TX:t=P:problem=kreska pseudotaktowa	!
2G/	con-	2G/	Con-	.	.	2d/	con-
.	.	.	.	4c/	.	.	.
=20-	=20-	=20-	=20-	=20-	=20-	=20-	=20-
2G/	-ci-	2B-\	-ſpe-	2d\	-ci-	1g\	-pe-
!LO:TX:t=P:problem=kreska pseudotaktowa	!	!	!	!LO:TX:t=P:problem=kreska pseudotaktowa	!	!	!
2C/	.	2c\	-ctu	2e\	.	.	.
!LO:TX:t=P:problem=kreska pseudotaktowa	!	!	!	!	!	!	!
0D/	-lij	2A/	Con-	1d\	-lij	2f\	.
*	*Xij	*	*	*	*	*	*
!	!	!	!	!	!	!LO:TX:t=P:problem=kreska pseudotaktowa	!
.	.	2.f\	.	.	.	2d/	-ctu
=21-	=21-	=21-	=21-	=21-	=21-	=21-	=21-
.	.	.	.	2r	.	2.f\	con-
.	.	4e\	.	.	.	.	.
!	!	!	!	!LO:TX:t=P:problem=kreska pseudotaktowa	!	!	!
*	*	*	*	*	*ij	*	*
.	.	4d\	.	2d\	a	.	.
.	.	4c\	.	.	.	4g\	.
1r	.	2d\	.	2d\	Con-	2a\	-ci-
!	!	!	!	!	!	!LO:TX:t=P:problem=kreska pseudotaktowa	!
.	.	2d\	-ci-	1g\	-ſpe-	2b-\	.
=22-	=22-	=22-	=22-	=22-	=22-	=22-	=22-
!	!	!LO:TX:t=P:problem=kreska pseudotaktowa	!	!	!	!	!
1.D/	a	1d\	-lij	.	.	2.a\	.
!	!	!	!	!LO:TX:t=P:problem=kreska pseudotaktowa	!	!	!
.	.	.	.	2f\	-ctu	.	.
!	!	!	!	!	!	!LO:TX:t=P:problem=kreska pseudotaktowa	!
.	.	.	.	.	.	4g\	.
*	*	*	*	*custos:e	*	*	*
.	.	2r	.	2d\	Con-	4f\	.
.	.	.	.	.	.	4e/	.
!	!	!	!	!LO:LB:g=original	!	!	!
2D/	Con-	2A/	a	1f\	-ci-	4d/	.
!	!	!	!	!	!	!LO:TX:t=P:problem=kreska pseudotaktowa	!
.	.	.	.	.	.	4c/	.
!LO:LB:g=original	!	!	!	!	!	!	!
=23-	=23-	=23-	=23-	=23-	=23-	=23-	=23-
1G/	-ſpe-	1B-\	Con-	.	.	2d/	-lij
!	!	!	!	!LO:TX:t=P:problem=kreska pseudotaktowa	!	!LO:TX:t=P:problem=kreska pseudotaktowa	!
.	.	.	.	2e\	.	2B-/	a
!	!	!LO:TX:t=P:problem=kreska pseudotaktowa	!	!	!	!	!
2F/	-ctu	1A/	-ſpe-	1f\	-lij	2c/	con-
*	*	*	*	*	*Xij	*	*
!LO:TX:t=P:problem=kreska pseudotaktowa	!	!	!	!	!	!LO:TX:t=P:problem=kreska pseudotaktowa	!
2D/	.	.	.	.	.	2d/	-spe-
=24-	=24-	=24-	=24-	=24-	=24-	=24-	=24-
2.F/	con-	2.A/	-ctu	2c/	con-	2A/	-ctu
!	!	!	!	!	!	!LO:TX:t=P:problem=kreska pseudotaktowa	!
.	.	.	.	1f\	-ci-	2a\	Con-
!LO:TX:t=P:problem=kreska pseudotaktowa	!	!	!	!	!	!	!
4G/	-ci-	4B-/	Con-	.	.	.	.
!	!	!	!	!	!	!LO:LB:g=original	!
2A\	.	2c\	.	.	.	2a\	-ci-
!LO:TX:t=P:problem=kreska pseudotaktowa	!	!LO:TX:t=P:problem=kreska pseudotaktowa	!	!	!	!LO:TX:t=P:problem=kreska pseudotaktowa	!
2B-\	.	2d\	.	4e\	.	2g\	-li-
!	!	!	!	!LO:TX:t=P:problem=kreska pseudotaktowa	!	!	!
.	.	.	.	4d\	.	.	.
=25-	=25-	=25-	=25-	=25-	=25-	=25-	=25-
!LO:TX:t=P:problem=kreska pseudotaktowa	!	!	!	!	!	!LO:TX:t=P:problem=kreska pseudotaktowa	!
1A\	-lij	2d\	-ci-	2e\	.	1a\	-j
.	.	2c\	.	2e\	-li-	.	.
!	!	!LO:TX:t=P:problem=kreska pseudotaktowa	!	!LO:TX:t=P:problem=kreska pseudotaktowa	!	!	!
2r	.	1d\	-lij	1d\	-j	2r	.
*	*	*	*Xij	*	*	*	*
!LO:TX:t=P:problem=kreska pseudotaktowa	!	!	!	!	!	!	!
2d\	quo-	.	.	.	.	1a\	quo-
=26-	=26-	=26-	=26-	=26-	=26-	=26-	=26-
2c\	-ni-	00r	.	0r	.	.	.
!LO:TX:t=P:problem=kreska pseudotaktowa	!	!	!	!	!	!LO:TX:t=P:problem=kreska pseudotaktowa	!
2e-X\	-a(m)	.	.	.	.	2g\	-ni
2.d\	di-	.	.	.	.	2b-\	a(m)
.	.	.	.	.	.	1a\	di-
!LO:TX:t=P:problem=kreska pseudotaktowa	!	!	!	!	!	!	!
4c\	.	.	.	.	.	.	.
=27-	=27-	=27-	=27-	=27-	=27-	=27-	=27-
1B-\	.	.	.	1d\	quo-	.	.
!	!	!	!	!	!	!LO:TX:t=P:problem=kreska pseudotaktowa	!
.	.	.	.	.	.	2g\	-gni
2A/	-gni	.	.	2c\	-ni-	2a\	ha-
!LO:TX:t=P:problem=kreska pseudotaktowa	!	!	!	!LO:TX:t=P:problem=kreska pseudotaktowa	!	!	!
2c\	ha-	.	.	2e-X\	-a(m)	1g\	-bi-
=28-	=28-	=28-	=28-	=28-	=28-	=28-	=28-
!	!	!LO:TX:t=P:problem=kreska pseudotaktowa	!	!	!	!	!
2B-\	-bi-	1r	.	2d\	di-	.	.
2A/	-ti	.	.	1c\	-gni-	2f\	-ti
!LO:TX:t=P:problem=kreska pseudotaktowa	!	!	!	!	!	!LO:TX:t=P:problem=kreska pseudotaktowa	!
1G/	sunt	1d\	quo-	.	.	1g\	s(un)t
!	!	!	!	!LO:TX:t=P:problem=kreska pseudotaktowa	!	!	!
.	.	.	.	2B-/	-ha-	.	.
=29-	=29-	=29-	=29-	=29-	=29-	=29-	=29-
0r	.	2c\	-ni-	2A/	-bi-	2r	.
!	!	!LO:TX:t=P:problem=kreska pseudotaktowa	!	!	!	!LO:TX:t=P:problem=kreska pseudotaktowa	!
*	*	*	*	*	*	*	*ij
.	.	2e-X\	-a(m)	2c/	-ti	2g\	quo-
!	!	!	!	!LO:TX:t=P:problem=kreska pseudotaktowa	!	!LO:TX:a:t=P:problem=# above	!
.	.	2.d\	di-	1d\	sunt	2f#X\	-ni-
!	!	!	!	!	!	!LO:TX:t=P:problem=kreska pseudotaktowa	!
.	.	.	.	.	.	2a\	-a(m)
.	.	4c\	.	.	.	.	.
=30-	=30-	=30-	=30-	=30-	=30-	=30-	=30-
*	*ij	*	*	*	*	*	*
1G/	quo-	1B-\	.	2r	.	2.g\	di-
*	*	*	*	*	*ij	*	*
.	.	.	.	1d\	quo-	.	.
!	!	!	!	!	!	!LO:TX:t=P:problem=kreska pseudotaktowa	!
.	.	.	.	.	.	4d/	-gni
!	!	!LO:LB:g=original	!	!	!	!	!
2F/	-ni-	2A/	-gni	.	.	2f\	ha-
!LO:TX:t=P:problem=kreska pseudotaktowa	!	!	!	!	!	!LO:TX:t=P:problem=kreska pseudotaktowa	!
2A/	-a(m)	1c\	ha-	2c/	-ni-	2e/	.
=31-	=31-	=31-	=31-	=31-	=31-	=31-	=31-
!	!	!	!	!	!	!LO:TX:t=P:problem=kreska pseudotaktowa	!
2.G/	di-	.	.	2e-X\	-a(m)	1g\	.
.	.	1B-\	-bi-	1d\	di-	.	.
4A/	.	.	.	.	.	.	.
2B-\	.	.	.	.	.	2.f\	.
!LO:TX:t=P:problem=kreska pseudotaktowa	!	!	!	!	!	!	!
2F/	-gni	2A/	-ti	1c\	-gni	.	.
!	!	!	!	!	!	!LO:TX:t=P:problem=kreska pseudotaktowa	!
.	.	.	.	.	.	4e/	.
=32-	=32-	=32-	=32-	=32-	=32-	=32-	=32-
!	!	!LO:TX:t=P:problem=kreska pseudotaktowa	!	!	!	!	!
1G/	ha-	1G/	sunt	.	.	4d/	bi-
.	.	.	.	.	.	4c/	.
!	!	!	!	!LO:TX:t=P:problem=kreska pseudotaktowa	!	!	!
.	.	.	.	2B-/	ha-	1d/	-ti
!LO:LB:g=original	!	!	!	!	!	!	!
2F/	-bi-	2r	.	2A/	-bi-	.	.
!LO:TX:t=P:problem=kreska pseudotaktowa	!	!	!	!	!	!LO:TX:t=P:problem=kreska pseudotaktowa	!
2E/	-ti	1g\	pro	2c/	-ti	2G/	.
=33-	=33-	=33-	=33-	=33-	=33-	=33-	=33-
!LO:TX:t=P:problem=kreska pseudotaktowa	!	!	!	!LO:TX:t=P:problem=kreska pseudotaktowa	!	!	!
0D/	sunt	.	.	0d\	sunt	2A/	sunt
*	*Xij	*	*	*	*Xij	*	*Xij
!	!	!	!	!	!	!LO:LB:g=original	!
.	.	2.f\	No-	.	.	2a\	pro
.	.	.	.	.	.	2.a\	No-
.	.	4e\	-mi-	.	.	.	.
.	.	1d\	-ne	.	.	.	.
!	!	!	!	!	!	!LO:TX:t=P:problem=kreska pseudotaktowa	!
.	.	.	.	.	.	4g\	-mi-
=34-	=34-	=34-	=34-	=34-	=34-	=34-	=34-
!LO:TX:t=P:problem=kreska pseudotaktowa	!	!	!	!	!	!	!
1r	.	.	.	2r	.	2f\	-ne
.	.	2c\	Je-	1g\	pro	2e/	Je-
!	!	!LO:TX:t=P:problem=kreska pseudotaktowa	!	!	!	!LO:TX:t=P:problem=kreska pseudotaktowa	!
2r	.	0d\	-su	.	.	1d/	-su
!	!	!	!	!LO:LB:g=original	!	!	!
!LO:TX:t=P:problem=kreska pseudotaktowa	!	!	!	!	!	!	!
2d\	pro	.	.	2.f\	No-	.	.
=35-	=35-	=35-	=35-	=35-	=35-	=35-	=35-
2.d\	No-	.	.	.	.	2r	.
.	.	.	.	4e\	-mi-	.	.
*	*	*	*	*	*	*	*ij
.	.	.	.	1d\	-ne	2a\	pro
!LO:TX:t=P:problem=kreska pseudotaktowa	!	!	!	!	!	!	!
4c\	-mi-	.	.	.	.	.	.
2B-\	-ne	1r	.	.	.	2g\	No-
!LO:TX:t=P:problem=kreska pseudotaktowa	!	!	!	!LO:TX:t=P:problem=kreska pseudotaktowa	!	!LO:TX:t=P:problem=kreska pseudotaktowa	!
2A/	Je-	.	.	2c/	Je-	2f\	-mi-
=36-	=36-	=36-	=36-	=36-	=36-	=36-	=36-
!LO:TX:t=P:problem=kreska pseudotaktowa	!	!	!	!LO:TX:t=P:problem=kreska pseudotaktowa	!	!	!
*	*	*	*ij	*	*	*	*
1G/	-su	1d\	pro	1d\	-ſu	2g\	-ne
.	.	.	.	.	.	2b-\	Ju-
!	!	!	!	!	!	!LO:TX:t=P:problem=kreska pseudotaktowa	!
1r	.	2.c\	No-	2r	.	1a\	-su
*	*	*	*	*	*ij	*	*
.	.	.	.	2A/	pro	.	.
!	!	!LO:TX:t=P:problem=kreska pseudotaktowa	!	!	!	!	!
.	.	4B-/	-mi-	.	.	.	.
=37-	=37-	=37-	=37-	=37-	=37-	=37-	=37-
2r	.	2A/	-ne	2d\	No-	2r	.
!LO:TX:t=P:problem=kreska pseudotaktowa	!	!	!	!LO:TX:t=P:problem=kreska pseudotaktowa	!	!LO:TX:t=P:problem=kreska pseudotaktowa	!
*	*ij	*	*	*	*	*	*
2G/	pro	2G/	Je-	2B-/	-mi-	2d/	pro
!	!	!LO:TX:t=P:problem=kreska pseudotaktowa	!	!	!	!	!
2.F/	No-	0.A/	-su	2c/	-ne	1.f\	No-
*	*	*	*Xij	*	*	*	*
.	.	.	.	4F/	Je-	.	.
!	!	!	!	!LO:TX:t=P:problem=kreska pseudotaktowa	!	!	!
4E/	-mi-	.	.	4G/	.	.	.
=38-	=38-	=38-	=38-	=38-	=38-	=38-	=38-
2D/	-ne	.	.	4A/	.	.	.
.	.	.	.	4B-/	.	.	.
!LO:TX:t=P:problem=kreska pseudotaktowa	!	!	!	!	!	!LO:TX:t=P:problem=kreska pseudotaktowa	!
2C/	Je-	.	.	2c/	.	2e/	-mi-
4D/	.	.	.	2A/	-su	2f\	-ne
*	*	*	*	*	*Xij	*	*
4E/	.	.	.	.	.	.	.
!	!	!	!	!	!	!LO:TX:t=P:problem=kreska pseudotaktowa	!
4F/	.	.	.	1d\	Je-	2f/	Je-
4G/	.	.	.	.	.	.	.
=39-	=39-	=39-	=39-	=39-	=39-	=39-	=39-
!LO:TX:t=P:problem=kreska pseudotaktowa	!	!	!	!	!	!LO:TX:t=P:problem=kreska pseudotaktowa	!
1A\	-su	1A/	.	.	.	1e\	-su
*	*Xij	*	*	*	*	*	*Xij
!	!	!	!	!LO:TX:t=P:problem=kreska pseudotaktowa	!	!	!
.	.	.	.	2c/	.	.	.
!	!	!	!	!LO:TX:t=P:problem=kreska pseudotaktowa	!	!	!
2r	.	2r	.	1d\	su	2r	.
!	!	!	!	!	!	!LO:TX:a:t=P:problem=# above	!
1D/	Con-	1A/	Con-	.	.	1f#X\	Con-
=40-	=40-	=40-	=40-	=40-	=40-	=40-	=40-
.	.	.	.	2r	.	.	.
!LO:TX:t=P:problem=kreska pseudotaktowa	!	!LO:TX:t=P:problem=kreska pseudotaktowa	!	!	!	!LO:TX:t=P:problem=kreska pseudotaktowa	!
2D/	-tu-	2A/	-tu-	1d\	Con-	2f#X\	-tu-
*lig	*	*	*	*	*	*	*
1G/	-me-	1B-\	-me-	.	.	1.g\	-me-
!	!	!	!	!LO:TX:t=P:problem=kreska pseudotaktowa	!	!	!
.	.	.	.	2d\	-tu-	.	.
=41-	=41-	=41-	=41-	=41-	=41-	=41-	=41-
!LO:TX:a:t=P:problem=♭ above	!	!	!	!	!	!	!
1E-X/	.	2B-/	-li-	1.e-X\	-me-	.	.
.	.	2B-/	-a(m)	.	.	2g\	-li-
!	!	!LO:TX:t=P:problem=kreska pseudotaktowa	!	!	!	!	!
*Xlig	*	*	*	*	*	*	*
!LO:TX:t=P:problem=kreska pseudotaktowa	!	!	!	!	!	!	!
1C/	-li-	1c\	pa-	.	.	1g\	-am
!	!	!	!	!LO:TX:t=P:problem=kreska pseudotaktowa	!	!	!
.	.	.	.	2c/	-li-	.	.
=42-	=42-	=42-	=42-	=42-	=42-	=42-	=42-
!	!	!LO:TX:t=P:problem=kreska pseudotaktowa	!	!	!	!	!
*	*	*	*	*	*	*lig	*
0G/	-a(m)	0d\	-ti	2B-/	-am	1g\	pa-
.	.	.	.	2.d\	pa-	.	.
*	*	*	*	*	*	*col	*
.	.	.	.	.	.	2.d/	.
.	.	.	.	4c/	.	.	.
.	.	.	.	1B-/	.	.	.
*	*	*	*	*	*	*Xlig	*
!	!	!	!	!	!	!LO:TX:t=P:problem=kreska pseudotaktowa	!
.	.	.	.	.	.	4e/	.
*	*	*	*	*	*	*Xcol	*
!LO:LB:g=original	!	!	!	!	!	!	!
=43-	=43-	=43-	=43-	=43-	=43-	=43-	=43-
!LO:TX:t=P:problem=kreska pseudotaktowa	!	!LO:TX:t=P:problem=kreska pseudotaktowa	!	!	!	!	!
1F/	pa-	1r	.	.	.	1f\	.
!	!	!	!	!LO:TX:t=P:problem=kreska pseudotaktowa	!	!	!
.	.	.	.	2A/	.	.	.
!	!	!LO:LB:g=original	!	!	!	!LO:LB:g=original	!
!	!	!	!	!LO:TX:t=P:problem=kreska pseudotaktowa	!	!LO:TX:t=P:problem=kreska pseudotaktowa	!
*	*	*	*Xij	*	*	*	*
2BB-/	-ti	1.d\	Con-	1B-/	-ti	1f\	-ti
*	*ij	*	*	*	*	*	*
1B-\	Con-	.	.	.	.	.	.
=44-	=44-	=44-	=44-	=44-	=44-	=44-	=44-
!	!	!	!	!LO:TX:t=P:problem=kreska pseudotaktowa	!	!	!
.	.	.	.	1r	.	2r	.
!LO:TX:t=P:problem=kreska pseudotaktowa	!	!	!	!	!	!	!
2G/	-tu-	2d\	-tu-	.	.	1g\	Con-
!	!	!	!	!LO:LB:g=original	!	!	!
*	*	*lig	*	*	*	*	*
1c\	-me-	1en\	-me-	2r	.	.	.
!	!	!	!	!	!	!LO:TX:t=P:problem=kreska pseudotaktowa	!
.	.	.	.	1c\	con-	2g\	-tu-
=45-	=45-	=45-	=45-	=45-	=45-	=45-	=45-
!	!	!LO:TX:t=P:problem=kreska pseudotaktowa	!	!	!	!	!
1F/	-li-	1f\	.	.	.	(1a\	-me-
.	.	.	.	2c/	-tu-	.	.
!	!	!	!	!LO:TX:t=P:problem=kreska pseudotaktowa	!	!	!
*	*	*Xlig	*	*	*	*	*
!LO:TX:t=P:problem=kreska pseudotaktowa	!	!	!	!	!	!	!
*	*	*	*	*lig	*	*	*
1B-\	-a(m)	2f\	-li-	1d\	-me-	2.b-\)	.
.	.	1d\	.	.	.	.	.
.	.	.	.	.	.	4b-\	-li-
=46-	=46-	=46-	=46-	=46-	=46-	=46-	=46-
!	!	!	!	!	!	!LO:TX:t=P:problem=kreska pseudotaktowa	!
0c\	pa-	.	.	1.e\	.	1g\	-am
.	.	4c\	.	.	.	.	.
.	.	4B-\	.	.	.	.	.
.	.	4c/	.	.	.	2r	.
.	.	4G/	.	.	.	.	.
!	!	!LO:TX:t=P:problem=kreska pseudotaktowa	!	!	!	!	!
*	*	*	*	*Xlig	*	*	*
!	!	!	!	!LO:TX:t=P:problem=kreska pseudotaktowa	!	!	!
*	*	*	*	*	*	*	*ij
.	.	2c\	-a(m)	2e\	-li-	1g\	Con-
=47-	=47-	=47-	=47-	=47-	=47-	=47-	=47-
!LO:TX:t=P:problem=kreska pseudotaktowa	!	!	!	!LO:TX:t=P:problem=kreska pseudotaktowa	!	!	!
1G/	-ti	2B-/	pa-	1d\	-a(m)	.	.
!	!	!	!	!	!	!LO:TX:t=P:problem=kreska pseudotaktowa	!
.	.	1G/	.	.	.	2g\	-tu-
!LO:TX:t=P:problem=kreska pseudotaktowa	!	!	!	!	!	!	!
*	*	*	*	*	*	*lig	*
1r	.	.	.	2r	.	1a\	-me-
*	*	*	*	*	*ij	*	*
.	.	2F/	.	1d\	con-	.	.
=48-	=48-	=48-	=48-	=48-	=48-	=48-	=48-
!LO:TX:t=P:problem=kreska pseudotaktowa	!	!LO:TX:t=P:problem=kreska pseudotaktowa	!	!	!	!	!
1G/	Con-	1G/	-ti	.	.	2.b-\	.
.	.	.	.	2d\	-tu-	.	.
!	!	!	!	!LO:TX:t=P:problem=kreska pseudotaktowa	!	!	!
*	*	*	*	*	*	*Xlig	*
!	!	!	!	!	!	!LO:TX:t=P:problem=kreska pseudotaktowa	!
.	.	.	.	.	.	4b-\	-li-
*	*	*	*	*lig	*	*	*
2G/	-tu-	1r	.	1e\	-me-	2g\	.
!	!	!	!	!	!	!LO:TX:t=P:problem=kreska pseudotaktowa	!
2.A/	-me-	.	.	.	.	2c/	-am
=49-	=49-	=49-	=49-	=49-	=49-	=49-	=49-
.	.	2r	.	1f\	.	2c/	pa-
4A/	-li-	.	.	.	.	.	.
2B-\	-am	1d\	Con-	.	.	1d/	.
!LO:TX:t=P:problem=kreska pseudotaktowa	!	!	!	!	!	!	!
*	*	*	*	*Xlig	*	*	*
1B-\	pa-	.	.	2f\	-li-	.	.
!	!	!LO:TX:t=P:problem=kreska pseudotaktowa	!	!	!	!LO:TX:t=P:problem=kreska pseudotaktowa	!
.	.	2d\	-tu-	2.g\	-a(m)	2G/	-ti
*	*	*	*	*	*Xij	*	*
=50-	=50-	=50-	=50-	=50-	=50-	=50-	=50-
*	*	*lig	*	*	*	*	*
2c\	-ti	1en\	-me-	.	.	2r	.
.	.	.	.	4f\	.	.	.
!LO:TX:t=P:problem=kreska pseudotaktowa	!	!	!	!LO:TX:t=P:problem=kreska pseudotaktowa	!	!	!
2C/	Con-	.	.	2e\	.	2g\	Con-
!	!	!LO:TX:t=P:problem=kreska pseudotaktowa	!	!	!	!	!
2F/	-tu-	1f\	.	2d\	.	2f\	-ti-
1F/	-me-	.	.	1c\	.	1a\	-me-
*	*	*Xlig	*	*	*	*	*
=51-	=51-	=51-	=51-	=51-	=51-	=51-	=51-
.	.	1d\	-li-	.	.	.	.
!LO:TX:t=P:problem=kreska pseudotaktowa	!	!	!	!LO:TX:t=P:problem=kreska pseudotaktowa	!	!LO:TX:t=P:problem=kreska pseudotaktowa	!
2G/	-li-	.	.	2B-/	.	2g\	-li-
1C/	-a(m)	2c\	.	1c\	.	1g\	-am
.	.	2.e-X\	a(m)	.	.	.	.
=52-	=52-	=52-	=52-	=52-	=52-	=52-	=52-
0C/	pa-	.	.	0e-X\	pa-	0g\	pa-
.	.	4d\	.	.	.	.	.
.	.	4c\	.	.	.	.	.
.	.	4B-\	.	.	.	.	.
.	.	1c\	pa-	.	.	.	.
=53-	=53-	=53-	=53-	=53-	=53-	=53-	=53-
!	!	!LO:TX:a:t=P:problem=♮ above	!	!	!	!	!
0G/;	-ti	0Bn\;	-ti	0d\;;	-ti	0g\;	-ti
*	*Xij	*	*	*	*	*	*
==	==	==	==	==	==	==	==
*-	*-	*-	*-	*-	*-	*-	*-
!!!system-decoration: [(s1,s2,s3,s4)]
!!!EED: Leszek Kubiak
!!!EEV: 2021-04-06
!!!ENC: Berenika Jozajtis
!!!END: 2021-03-26
